public/icons/icon/distribute-horizontal.svg

<svg width="30" height="30" viewBox="0 0 30 30" fill="none" xmlns="http://www.w3.org/2000/svg">
<path d="M1.99976 12H10.9998C11.552 12 11.9998 12.4477 11.9998 13V17C11.9998 17.5523 11.552 18 10.9998 18H1.99976V12Z" fill="black"/>
<path d="M17.9998 13C17.9998 12.4477 18.4475 12 18.9998 12H27.9998V18H18.9998C18.4475 18 17.9998 17.5523 17.9998 17V13Z" fill="black"/>
<path d="M0 3C0 2.44772 0.447715 2 1 2C1.55228 2 2 2.44772 2 3V27C2 27.5523 1.55228 28 1 28C0.447715 28 0 27.5523 0 27V3Z" fill="black"/>
<path d="M27.9998 3C27.9998 2.44772 28.4475 2 28.9998 2C29.552 2 29.9998 2.44772 29.9998 3V27C29.9998 27.5523 29.552 28 28.9998 28C28.4475 28 27.9998 27.5523 27.9998 27V3Z" fill="black"/>
</svg>

<svg xmlns="http://www.w3.org/2000/svg" width="30" height="30" fill="none"><path fill="#000" d="M2 12h9a1 1 0 0 1 1 1v4a1 1 0 0 1-1 1H2v-6ZM18 13a1 1 0 0 1 1-1h9v6h-9a1 1 0 0 1-1-1v-4ZM0 3a1 1 0 0 1 2 0v24a1 1 0 1 1-2 0V3ZM28 3a1 1 0 1 1 2 0v24a1 1 0 0 1-2 0V3Z"/></svg>
